img/social/inst.svg

<svg width="61" height="60" viewBox="0 0 61 60" fill="none" xmlns="http://www.w3.org/2000/svg">
<rect x="0.800003" width="59.9333" height="59.9333" rx="29.9667" fill="black"/>
<path fill-rule="evenodd" clip-rule="evenodd" d="M24.0815 17.5402C21.109 18.0423 18.8275 20.3335 18.3466 23.2996C18.24 23.9564 18.24 35.9707 18.3466 36.6274C18.8294 39.605 21.1276 41.9038 24.1044 42.3868C24.7611 42.4933 36.7723 42.4933 37.4289 42.3868C40.4045 41.904 42.7042 39.6038 43.1868 36.6274C43.2933 35.9707 43.2933 23.9564 43.1868 23.2996C42.7042 20.3233 40.4045 18.023 37.4289 17.5403C36.8241 17.4422 24.6624 17.4421 24.0815 17.5402ZM37.525 19.8474C38.4283 20.0996 39.3548 20.691 39.9383 21.3879C40.3019 21.822 40.7346 22.6665 40.8812 23.2279L40.9896 23.6428V29.9635V36.2843L40.8812 36.6992C40.7346 37.2605 40.3019 38.1051 39.9383 38.5392C39.3442 39.2487 38.4048 39.8425 37.5006 40.08L37.0859 40.189H30.7667H24.4475L24.0327 40.08C23.1286 39.8425 22.1892 39.2487 21.595 38.5392C21.2315 38.1051 20.7987 37.2605 20.6521 36.6992L20.5437 36.2843V29.9635V23.6428L20.6527 23.2279C21.1046 21.5068 22.4879 20.184 24.2279 19.8088C24.6192 19.7245 24.9964 19.7199 30.8887 19.7289L37.1347 19.7384L37.525 19.8474ZM37.0859 21.6858C36.7573 21.767 36.5839 21.864 36.3345 22.1061C36.0057 22.4252 35.8659 22.7745 35.8659 23.2767C35.8659 23.623 35.887 23.7359 35.9934 23.96C36.4923 25.0104 37.8781 25.2202 38.6767 24.3662C38.9758 24.0465 39.0865 23.7454 39.0865 23.2523C39.0865 22.9318 39.0633 22.8124 38.9572 22.5858C38.7325 22.1065 38.323 21.7822 37.8032 21.672C37.4915 21.6059 37.402 21.6076 37.0859 21.6858ZM29.9859 23.5504C29.3376 23.6689 29.0292 23.7413 28.7172 23.8482C26.5208 24.6003 24.9292 26.4032 24.4387 28.6945C24.372 29.0061 24.3499 29.322 24.3499 29.9635C24.3499 30.605 24.372 30.921 24.4387 31.2326C24.9901 33.8085 26.9227 35.7416 29.498 36.2931C30.0808 36.418 31.4525 36.418 32.0354 36.2931C34.6106 35.7416 36.5432 33.8085 37.0946 31.2326C37.1613 30.921 37.1835 30.605 37.1835 29.9635C37.1835 29.322 37.1613 29.0061 37.0946 28.6945C36.5477 26.1392 34.6282 24.2039 32.0842 23.6427C31.7298 23.5645 30.2619 23.4999 29.9859 23.5504ZM31.7914 25.8895C32.1742 25.9895 32.8194 26.2825 33.1418 26.5028C33.9432 27.0506 34.5899 27.9835 34.8469 28.963C34.9719 29.439 34.9719 30.488 34.8469 30.9641C34.517 32.2209 33.681 33.2258 32.5157 33.7663C31.8814 34.0605 31.5298 34.1345 30.7667 34.1345C30.0036 34.1345 29.652 34.0605 29.0176 33.7663C28.0688 33.3262 27.4033 32.6591 26.961 31.7047C26.6708 31.0787 26.5967 30.7245 26.5967 29.9635C26.5967 29.2003 26.6707 28.8485 26.9649 28.214C27.5445 26.9637 28.605 26.129 29.9859 25.8362C30.3963 25.7492 31.3631 25.7777 31.7914 25.8895Z" fill="white"/>
</svg>

<svg width="61" height="60" fill="none" xmlns="http://www.w3.org/2000/svg"><rect x=".8" width="59.933" height="59.933" rx="29.967" fill="#000"/><path fill-rule="evenodd" clip-rule="evenodd" d="M24.081 17.54a6.94 6.94 0 0 0-5.734 5.76c-.107.656-.107 12.67 0 13.327a6.929 6.929 0 0 0 5.757 5.76c.657.106 12.668.106 13.325 0a6.931 6.931 0 0 0 5.758-5.76c.106-.656.106-12.67 0-13.327a6.93 6.93 0 0 0-5.758-5.76c-.605-.098-12.767-.098-13.348 0Zm13.444 2.307c.903.253 1.83.844 2.413 1.54.364.435.797 1.28.943 1.84l.109.416v12.641l-.109.415c-.146.562-.58 1.406-.943 1.84-.594.71-1.533 1.303-2.437 1.541l-.415.109H24.448l-.415-.109c-.904-.237-1.844-.831-2.438-1.54-.363-.435-.796-1.28-.943-1.84l-.108-.416V23.643l.109-.415a4.728 4.728 0 0 1 3.575-3.42c.391-.084.768-.088 6.66-.08l6.247.01.39.11Zm-.44 1.839c-.328.081-.501.178-.75.42-.33.32-.47.668-.47 1.17 0 .347.022.46.128.684a1.635 1.635 0 0 0 2.684.406c.299-.32.41-.62.41-1.114 0-.32-.024-.44-.13-.666a1.617 1.617 0 0 0-1.154-.914c-.311-.066-.401-.064-.717.014Zm-7.1 1.864c-.647.119-.956.191-1.268.298-2.196.752-3.788 2.555-4.278 4.847-.067.311-.09.627-.09 1.268 0 .642.023.958.09 1.27.551 2.576 2.484 4.509 5.059 5.06.583.125 1.954.125 2.537 0 2.576-.551 4.508-2.484 5.06-5.06.066-.312.089-.628.089-1.27 0-.641-.023-.957-.09-1.268-.546-2.556-2.466-4.491-5.01-5.052-.354-.079-1.822-.143-2.098-.093Zm1.806 2.34c.383.1 1.028.392 1.35.613.802.548 1.449 1.48 1.706 2.46.125.476.125 1.525 0 2.001a4.231 4.231 0 0 1-2.331 2.802c-.635.294-.986.369-1.75.369-.762 0-1.114-.075-1.748-.369-.95-.44-1.615-1.107-2.057-2.061-.29-.626-.364-.98-.364-1.741 0-.764.074-1.115.368-1.75.58-1.25 1.64-2.085 3.02-2.378.411-.087 1.378-.058 1.806.054Z" fill="#fff"/></svg>
